resources/lib/oojs-ui/themes/mediawiki/images/icons/newspaper-ltr.svg

<?xml version="1.0" encoding="utf-8"?>
<svg xmlns="http://www.w3.org/2000/svg" width="24" height="24" viewBox="0 0 24 24">
    <path d="M6 7v12c-.6 0-1-.4-1-1v-9h-1v9c0 1.1.9 2 2 2h15v-13h-15zm9 11h-7v-1h7v1zm0-2h-7v-1h7v1zm0-2h-7v-1h7v1zm4 4h-3v-5h3v5zm0-7h-11v-2h11v2z"/>
</svg>

<?xml version="1.0" encoding="utf-8"?>
<svg xmlns="http://www.w3.org/2000/svg" width="24" height="24" viewBox="0 0 24 24">
    <path d="M6 7v12c-.6 0-1-.4-1-1V9H4v9c0 1.1.9 2 2 2h15V7H6zm9 11H8v-1h7v1zm0-2H8v-1h7v1zm0-2H8v-1h7v1zm4 4h-3v-5h3v5zm0-7H8V9h11v2z"/>
</svg>
